X:1004
T:Father Fielding's Favourite
N:"Collected by F.O'Neill"
B:O'Neill's 1004
Z:Transcribed by Dan G. Petersen, dangp@post6.tele.dk
M:6/8
L:1/8
K:G
D|GAB BcA|AGG G2B/c/|dBG FGA|FDD D2D|
GAB BcA|AGG fed|cAG FGA|BAGG G2:|
d|gfg afd|cBc dBG|gfg afd|cBc d2d|
gfg gfg|ece efg|ded cBA|BGG G2:|
